X: 24473
T: Lucozade, The
R: reel
M: 4/4
K: Bminor
|:f~d3 e~c3|BcBA FEFA|B~F3 Bcde|fdec dcde|
f~d3 e~c3|BcBA FEFA|B~F3 Bcde|fdec B3e:|
|:fbbf afed|cdec Acec|fbbf afed|cdec B3e|
fbbf afed|cdec Acec|B~F3 Bcde|fdec B3e:|

